icons/tobi.svg

<svg xmlns="http://www.w3.org/2000/svg" viewBox="0 0 32 32"><path fill="#c2185b" d="M2 2v28h28V2Zm16 16h-4v10h-2V18H8v-2h10Zm10 10h-8V16h2v10h6Z"/></svg>

<svg xmlns="http://www.w3.org/2000/svg" viewBox="0 0 32 32"><path d="M2,4V28a2,2,0,0,0,2,2H28a2,2,0,0,0,2-2V4a2,2,0,0,0-2-2H4A2,2,0,0,0,2,4ZM18,18H14V28H12V18H8V16H18ZM28,28H20V16h2V26h6Z" style="fill:#c2185b"/></svg>
